images/small-calendar.svg

<svg enable-background="new 0 0 32 32" height="512" viewBox="0 0 32 32" width="512" xmlns="http://www.w3.org/2000/svg"><g fill="#7b7d7d"><path d="m29.334 3h-4.334v-2c0-.553-.447-1-1-1s-1 .447-1 1v2h-6v-2c0-.553-.448-1-1-1s-1 .447-1 1v2h-6v-2c0-.553-.448-1-1-1s-1 .447-1 1v2h-4.333c-1.473 0-2.667 1.193-2.667 2.666v23.667c0 1.473 1.194 2.667 2.667 2.667h26.667c1.473 0 2.666-1.194 2.666-2.667v-23.667c0-1.473-1.193-2.666-2.666-2.666zm.666 26.333c0 .368-.299.667-.666.667h-26.667c-.368 0-.667-.299-.667-.667v-23.667c0-.367.299-.666.667-.666h4.333v2c0 .553.448 1 1 1s1-.447 1-1v-2h6v2c0 .553.448 1 1 1s1-.447 1-1v-2h6v2c0 .553.447 1 1 1s1-.447 1-1v-2h4.334c.367 0 .666.299.666.666z"/><path d="m7 12h4v3h-4z"/><path d="m7 17h4v3h-4z"/><path d="m7 22h4v3h-4z"/><path d="m14 22h4v3h-4z"/><path d="m14 17h4v3h-4z"/><path d="m14 12h4v3h-4z"/><path d="m21 22h4v3h-4z"/><path d="m21 17h4v3h-4z"/><path d="m21 12h4v3h-4z"/></g></svg>

<?xml version="1.0"?>
<svg xmlns="http://www.w3.org/2000/svg" xmlns:xlink="http://www.w3.org/1999/xlink" version="1.1" id="Capa_1" x="0px" y="0px" viewBox="0 0 32 32" style="enable-background:new 0 0 32 32;" xml:space="preserve" width="512px" height="512px"><g><g>
	<g id="calendar_1_">
		<path d="M29.334,3H25V1c0-0.553-0.447-1-1-1s-1,0.447-1,1v2h-6V1c0-0.553-0.448-1-1-1s-1,0.447-1,1v2H9V1    c0-0.553-0.448-1-1-1S7,0.447,7,1v2H2.667C1.194,3,0,4.193,0,5.666v23.667C0,30.806,1.194,32,2.667,32h26.667    C30.807,32,32,30.806,32,29.333V5.666C32,4.193,30.807,3,29.334,3z M30,29.333C30,29.701,29.701,30,29.334,30H2.667    C2.299,30,2,29.701,2,29.333V5.666C2,5.299,2.299,5,2.667,5H7v2c0,0.553,0.448,1,1,1s1-0.447,1-1V5h6v2c0,0.553,0.448,1,1,1    s1-0.447,1-1V5h6v2c0,0.553,0.447,1,1,1s1-0.447,1-1V5h4.334C29.701,5,30,5.299,30,5.666V29.333z" data-original="#010002" class="active-path" data-old_color="#63497E" fill="#7B7D7D"/>
		<rect x="7" y="12" width="4" height="3" data-original="#010002" class="active-path" data-old_color="#63497E" fill="#7B7D7D"/>
		<rect x="7" y="17" width="4" height="3" data-original="#010002" class="active-path" data-old_color="#63497E" fill="#7B7D7D"/>
		<rect x="7" y="22" width="4" height="3" data-original="#010002" class="active-path" data-old_color="#63497E" fill="#7B7D7D"/>
		<rect x="14" y="22" width="4" height="3" data-original="#010002" class="active-path" data-old_color="#63497E" fill="#7B7D7D"/>
		<rect x="14" y="17" width="4" height="3" data-original="#010002" class="active-path" data-old_color="#63497E" fill="#7B7D7D"/>
		<rect x="14" y="12" width="4" height="3" data-original="#010002" class="active-path" data-old_color="#63497E" fill="#7B7D7D"/>
		<rect x="21" y="22" width="4" height="3" data-original="#010002" class="active-path" data-old_color="#63497E" fill="#7B7D7D"/>
		<rect x="21" y="17" width="4" height="3" data-original="#010002" class="active-path" data-old_color="#63497E" fill="#7B7D7D"/>
		<rect x="21" y="12" width="4" height="3" data-original="#010002" class="active-path" data-old_color="#63497E" fill="#7B7D7D"/>
	</g>
</g></g> </svg>
